dist/images/pinterest.svg

<svg width="13" height="16" viewBox="0 0 13 16" fill="none" xmlns="http://www.w3.org/2000/svg">
<path d="M6.74032 0.203125C3.55564 0.203125 0.408203 2.34063 0.408203 5.8C0.408203 8 1.63738 9.25 2.38233 9.25C2.68963 9.25 2.86655 8.3875 2.86655 8.14375C2.86655 7.85313 2.13091 7.23438 2.13091 6.025C2.13091 3.5125 4.03055 1.73125 6.4889 1.73125C8.60271 1.73125 10.1671 2.94062 10.1671 5.1625C10.1671 6.82187 9.50597 9.93437 7.36422 9.93437C6.59133 9.93437 5.93018 9.37187 5.93018 8.56563C5.93018 7.38438 6.74963 6.24062 6.74963 5.02187C6.74963 2.95312 3.835 3.32812 3.835 5.82812C3.835 6.35313 3.90018 6.93437 4.13298 7.4125C3.70463 9.26875 2.82931 12.0344 2.82931 13.9469C2.82931 14.5375 2.91311 15.1188 2.96899 15.7094C3.07452 15.8281 3.02175 15.8156 3.18316 15.7563C4.74757 13.6 4.69169 13.1781 5.3994 10.3562C5.78119 11.0875 6.76826 11.4812 7.55046 11.4812C10.8469 11.4812 12.3275 8.24688 12.3275 5.33125C12.3275 2.22813 9.66427 0.203125 6.74032 0.203125Z" fill="black"/>
</svg>

<svg width="13" height="16" fill="none" xmlns="http://www.w3.org/2000/svg"><path d="M6.74.203C3.556.203.408 2.341.408 5.8c0 2.2 1.23 3.45 1.974 3.45.308 0 .485-.863.485-1.106 0-.29-.736-.91-.736-2.119 0-2.513 1.9-4.294 4.358-4.294 2.114 0 3.678 1.21 3.678 3.431 0 1.66-.661 4.772-2.803 4.772-.773 0-1.434-.562-1.434-1.368 0-1.182.82-2.325.82-3.544 0-2.069-2.915-1.694-2.915.806 0 .525.065 1.106.298 1.584-.428 1.857-1.304 4.622-1.304 6.535 0 .59.084 1.172.14 1.762.106.12.053.107.214.047 1.565-2.156 1.509-2.578 2.216-5.4.382.732 1.37 1.125 2.151 1.125 3.297 0 4.778-3.234 4.778-6.15 0-3.103-2.664-5.128-5.588-5.128z" fill="#000"/></svg>
